assets/icons/notifylight.svg

<svg width="24" height="24" viewBox="0 0 24 24" fill="none" xmlns="http://www.w3.org/2000/svg">
<path d="M12 6.44043V9.77043" stroke="#424A55" stroke-width="1.5" stroke-miterlimit="10" stroke-linecap="round"/>
<path d="M12.0209 2C8.34087 2 5.36087 4.98 5.36087 8.66V10.76C5.36087 11.44 5.08087 12.46 4.73087 13.04L3.46087 15.16C2.68087 16.47 3.22087 17.93 4.66087 18.41C9.44087 20 14.6109 20 19.3909 18.41C20.7409 17.96 21.3209 16.38 20.5909 15.16L19.3209 13.04C18.9709 12.46 18.6909 11.43 18.6909 10.76V8.66C18.6809 5 15.6809 2 12.0209 2Z" stroke="#1A1D21" stroke-width="1.5" stroke-miterlimit="10" stroke-linecap="round"/>
<path d="M15.3299 18.8203C15.3299 20.6503 13.8299 22.1503 11.9999 22.1503C11.0899 22.1503 10.2499 21.7703 9.64992 21.1703C9.04992 20.5703 8.66992 19.7303 8.66992 18.8203" stroke="#1A1D21" stroke-width="1.5" stroke-miterlimit="10"/>
</svg>

<svg width="24" height="24" viewBox="0 0 24 24" fill="none" xmlns="http://www.w3.org/2000/svg"><path d="M12 6.44v3.33" stroke="#424A55" stroke-width="1.5" stroke-miterlimit="10" stroke-linecap="round"/><path d="M12.02 2a6.66 6.66 0 0 0-6.66 6.66v2.1c0 .68-.28 1.7-.63 2.28l-1.27 2.12c-.78 1.31-.24 2.77 1.2 3.25a23.3 23.3 0 0 0 14.73 0 2.22 2.22 0 0 0 1.2-3.25l-1.27-2.12a5 5 0 0 1-.63-2.28v-2.1A6.7 6.7 0 0 0 12.02 2Z" stroke="#1A1D21" stroke-width="1.5" stroke-miterlimit="10" stroke-linecap="round"/><path d="M15.33 18.82c0 1.83-1.5 3.33-3.33 3.33a3.34 3.34 0 0 1-3.33-3.33" stroke="#1A1D21" stroke-width="1.5" stroke-miterlimit="10"/></svg>
